icons/amazon.svg

<svg width="16" height="16" viewBox="0 0 16 16" fill="none" xmlns="http://www.w3.org/2000/svg">
<path d="M10.8125 11.968C10.9702 12.0514 11.1727 12.0424 11.3126 11.9174L11.3185 11.9234C11.7412 11.5483 12.5093 10.8784 12.941 10.5182C13.1137 10.3753 13.0839 10.146 12.947 9.9555C12.9055 9.89802 12.8637 9.8417 12.8222 9.78574C12.4766 9.31994 12.1491 8.87862 12.1491 7.99357V4.69492C12.1491 4.58221 12.1498 4.47024 12.1504 4.35912C12.1576 3.0936 12.1642 1.93791 11.2173 1.05395C10.4045 0.27392 9.05888 0 8.02878 0C6.01627 0 3.76862 0.750283 3.29527 3.2391C3.24764 3.5041 3.43816 3.64398 3.61079 3.68276L5.66504 3.90303C5.85556 3.89412 5.99544 3.70655 6.0312 3.51597C6.20685 2.65856 6.92733 2.24476 7.73409 2.24476C8.16879 2.24476 8.66297 2.40554 8.92202 2.79555C9.18649 3.18562 9.18247 3.70518 9.17887 4.17134C9.17846 4.2246 9.17805 4.27716 9.17805 4.32875V4.60267C8.97998 4.62526 8.77205 4.64653 8.55777 4.66845C7.44509 4.78226 6.16122 4.91359 5.19758 5.33802C3.87285 5.90958 2.94096 7.07962 2.94096 8.79738C2.94096 10.9975 4.32832 12.096 6.10864 12.096C7.61505 12.096 8.43674 11.7418 9.59781 10.5569C9.65902 10.6449 9.71368 10.7258 9.7651 10.802C10.0388 11.2071 10.221 11.4768 10.8125 11.968ZM6.0312 8.43121C6.0312 6.62704 7.64774 6.29959 9.17805 6.29959L9.17814 6.87046C9.17904 7.64577 9.17981 8.30396 8.78208 9.00277C8.44565 9.59824 7.91275 9.96441 7.31734 9.96441C6.50456 9.96441 6.0312 9.34516 6.0312 8.43121Z" fill="black"/>
<path d="M0.435036 12.1741C3.0638 13.7768 7.1329 16.2577 13.6184 13.1711C13.8979 13.0545 14.0932 13.2493 13.8167 13.6024C13.5382 13.9585 11.3124 16 7.57099 16C3.83213 16 0.967734 13.4456 0.0937001 12.3858C-0.145705 12.1108 0.130223 11.9866 0.292567 12.0873L0.435036 12.1741Z" fill="black"/>
<path d="M13.8277 11.9425C14.3948 11.8729 15.2958 11.9159 15.4731 12.1469C15.6079 12.3227 15.4686 13.113 15.2402 13.6796C15.0103 14.243 14.6677 14.6412 14.4784 14.7949C14.2865 14.9487 14.1453 14.8892 14.2475 14.6583C14.3532 14.4273 14.9322 12.9954 14.7028 12.6948C14.4902 12.417 13.5261 12.5176 13.0782 12.5643L12.9873 12.5736C12.8926 12.5822 12.8164 12.5907 12.7546 12.5975C12.5618 12.6191 12.5103 12.6248 12.4815 12.5657C12.4074 12.3573 13.2598 12.0102 13.8277 11.9425Z" fill="black"/>
</svg>

<svg xmlns="http://www.w3.org/2000/svg" width="16" height="16" fill="currentColor" class="bi bi-amazon" viewBox="0 0 16 16">
  <path d="M10.813 11.968c.157.083.36.074.5-.05l.005.005a89.521 89.521 0 0 1 1.623-1.405c.173-.143.143-.372.006-.563l-.125-.17c-.345-.465-.673-.906-.673-1.791v-3.3l.001-.335c.008-1.265.014-2.421-.933-3.305C10.404.274 9.06 0 8.03 0 6.017 0 3.77.75 3.296 3.24c-.047.264.143.404.316.443l2.054.22c.19-.009.33-.196.366-.387.176-.857.896-1.271 1.703-1.271.435 0 .929.16 1.188.55.264.39.26.91.257 1.376v.432c-.199.022-.407.044-.621.065-1.113.114-2.397.246-3.36.67C3.873 5.91 2.94 7.08 2.94 8.798c0 2.2 1.387 3.298 3.168 3.298 1.506 0 2.328-.354 3.489-1.54l.167.246c.274.405.456.675 1.047 1.166ZM6.03 8.431C6.03 6.627 7.647 6.3 9.177 6.3v.57c.001.776.002 1.434-.396 2.133-.336.595-.87.961-1.465.961-.812 0-1.286-.619-1.286-1.533ZM.435 12.174c2.629 1.603 6.698 4.084 13.183.997.28-.116.475.078.199.431C13.538 13.96 11.312 16 7.57 16 3.832 16 .968 13.446.094 12.386c-.24-.275.036-.4.199-.299l.142.087Z"/>
  <path d="M13.828 11.943c.567-.07 1.468-.027 1.645.204.135.176-.004.966-.233 1.533-.23.563-.572.961-.762 1.115-.191.154-.333.094-.23-.137.105-.23.684-1.663.455-1.963-.213-.278-1.177-.177-1.625-.13l-.09.009c-.095.008-.172.017-.233.024-.193.021-.245.027-.274-.032-.074-.209.779-.556 1.347-.623Z"/>
</svg>
